krita/pics/tools/SVG/16/dark_tool_magnetic_selection.svg

<svg xmlns:dc="http://purl.org/dc/elements/1.1/" xmlns:cc="http://creativecommons.org/ns#" xmlns:rdf="http://www.w3.org/1999/02/22-rdf-syntax-ns#" xmlns="http://www.w3.org/2000/svg" height="16" width="16" version="1.1" viewBox="0 0 16 16" data-name="Layer 2" id="Layer_2"><metadata id="metadata16"><rdf:RDF><cc:Work><dc:format>image/svg+xml</dc:format><dc:type rdf:resource="http://purl.org/dc/dcmitype/StillImage"/><dc:title/><dc:creator><cc:Agent><dc:title>Andrei Rudenko</dc:title></cc:Agent></dc:creator><dc:date>2021</dc:date><cc:license rdf:resource="http://creativecommons.org/licenses/by-sa/4.0/"/></cc:Work><cc:License rdf:about="http://creativecommons.org/licenses/by-sa/4.0/"><cc:permits rdf:resource="http://creativecommons.org/ns#Reproduction"/><cc:permits rdf:resource="http://creativecommons.org/ns#Distribution"/><cc:requires rdf:resource="http://creativecommons.org/ns#Notice"/><cc:requires rdf:resource="http://creativecommons.org/ns#Attribution"/><cc:permits rdf:resource="http://creativecommons.org/ns#DerivativeWorks"/><cc:requires rdf:resource="http://creativecommons.org/ns#ShareAlike"/></cc:License></rdf:RDF></metadata><defs id="defs4"><style id="style2">.cls-2{fill:none;stroke:#cacaca;stroke-miterlimit:10;stroke-width:4px}</style></defs><path style="fill:#373737;stroke-width:.5;fill-opacity:1" d="M0 0v4h2V2h2V0zm0 6v4h2V6zm0 6v4h4v-2H2v-2zm14 0v2h-2v2h4v-4zm-8 2v2h4v-2z" id="rect4883-3"/><path style="fill:none;stroke:#373737;stroke-width:2px;stroke-miterlimit:10;stroke-opacity:1" id="path7" d="m12.06 9.595 1.77-1.765a4.002 4.002 0 0 0-5.66-5.66L6.405 3.94" class="cls-2"/><line style="fill:none;stroke:#373737;stroke-width:2px;stroke-miterlimit:10;stroke-opacity:1" id="line9" y2="6.0599999" x2="4.2800002" y1="4.645" x1="5.6950002" class="cls-2"/><line style="fill:none;stroke:#373737;stroke-width:2px;stroke-miterlimit:10;stroke-opacity:1" id="line11" y2="11.72" x2="9.9399996" y1="10.305" x1="11.355" class="cls-2"/></svg>

<?xml version="1.0" encoding="UTF-8" standalone="no"?>
<svg
   xmlns:dc="http://purl.org/dc/elements/1.1/"
   xmlns:cc="http://creativecommons.org/ns#"
   xmlns:rdf="http://www.w3.org/1999/02/22-rdf-syntax-ns#"
   xmlns:svg="http://www.w3.org/2000/svg"
   xmlns="http://www.w3.org/2000/svg"
   height="16"
   width="16"
   version="1.1"
   viewBox="0 0 16 16"
   data-name="Layer 2"
   id="Layer_2">
  <metadata
     id="metadata16">
    <rdf:RDF>
      <cc:Work
         rdf:about="">
        <dc:format>image/svg+xml</dc:format>
        <dc:type
           rdf:resource="http://purl.org/dc/dcmitype/StillImage" />
        <dc:title></dc:title>
        <dc:creator>
          <cc:Agent>
            <dc:title>Andrei Rudenko</dc:title>
          </cc:Agent>
        </dc:creator>
        <dc:date>2021</dc:date>
        <cc:license
           rdf:resource="http://creativecommons.org/licenses/by-sa/4.0/" />
      </cc:Work>
      <cc:License
         rdf:about="http://creativecommons.org/licenses/by-sa/4.0/">
        <cc:permits
           rdf:resource="http://creativecommons.org/ns#Reproduction" />
        <cc:permits
           rdf:resource="http://creativecommons.org/ns#Distribution" />
        <cc:requires
           rdf:resource="http://creativecommons.org/ns#Notice" />
        <cc:requires
           rdf:resource="http://creativecommons.org/ns#Attribution" />
        <cc:permits
           rdf:resource="http://creativecommons.org/ns#DerivativeWorks" />
        <cc:requires
           rdf:resource="http://creativecommons.org/ns#ShareAlike" />
      </cc:License>
    </rdf:RDF>
  </metadata>
  <defs
     id="defs4">
    <style
       id="style2">.cls-1{fill:#cacaca;}.cls-2{fill:none;stroke:#cacaca;stroke-miterlimit:10;stroke-width:4px;}</style>
  </defs>
  <path
     style="fill:#373737;stroke-width:0.5;fill-opacity:1"
     d="M 0,0 V 4 H 2 V 2 H 4 V 0 Z m 0,6 v 4 H 2 V 6 Z m 0,6 v 4 H 4 V 14 H 2 v -2 z m 14,0 v 2 h -2 v 2 h 4 v -4 z m -8,2 v 2 h 4 v -2 z"
     class="cls-1"
     id="rect4883-3" />
  <path
     style="fill:none;stroke:#373737;stroke-width:2px;stroke-miterlimit:10;stroke-opacity:1"
     id="path7"
     d="M 12.06,9.595 13.83,7.83 A 4.0022244,4.0022244 0 0 0 8.17,2.17 L 6.405,3.94"
     class="cls-2" />
  <line
     style="fill:none;stroke:#373737;stroke-width:2px;stroke-miterlimit:10;stroke-opacity:1"
     id="line9"
     y2="6.0599999"
     x2="4.2800002"
     y1="4.645"
     x1="5.6950002"
     class="cls-2" />
  <line
     style="fill:none;stroke:#373737;stroke-width:2px;stroke-miterlimit:10;stroke-opacity:1"
     id="line11"
     y2="11.72"
     x2="9.9399996"
     y1="10.305"
     x1="11.355"
     class="cls-2" />
</svg>
